lib/flags/l/670.svg

<svg xmlns="http://www.w3.org/2000/svg" fill="none" viewBox="0 0 32 24"><mask id="670_svg__a" width="32" height="24" x="0" y="0" mask-type="alpha" maskUnits="userSpaceOnUse"><path fill="#fff" d="M0 0H32V24H0z"/></mask><g fill-rule="evenodd" clip-rule="evenodd" mask="url(#670_svg__a)"><path fill="#FFDC17" d="M8 0H24V24H8V0Z"/><path fill="#5FBF2B" d="M24 0H32V24H24V0Z"/><path fill="#2E42A5" d="M0 0H8V24H0V0Z"/><path fill="#5FBF2B" d="M19.7264 5.6001L16.6863 10.063L19.7264 14.368L22.7665 10.063L19.7264 5.6001ZM12.2772 5.67894L9 10.063L12.0401 14.2893L15.0802 10.063L12.2772 5.67894ZM12.8431 14.9889L16.1204 10.6049L18.9234 14.9889L16.1204 19.5012L12.8431 14.9889Z"/></g></svg>

<svg xmlns="http://www.w3.org/2000/svg" fill="none" viewBox="0 0 32 24"><mask id="670_svg__a" width="32" height="24" x="0" y="0" maskUnits="userSpaceOnUse"><path fill="#fff" d="M0 0h32v24H0z"/></mask><g fill-rule="evenodd" clip-rule="evenodd" mask="url(#670_svg__a)"><path fill="#FFDC17" d="M8 0h16v24H8V0z"/><path fill="#5FBF2B" d="M24 0h8v24h-8V0z"/><path fill="#2E42A5" d="M0 0h8v24H0V0z"/><path fill="#5FBF2B" d="M19.726 5.6l-3.04 4.463 3.04 4.305 3.04-4.305-3.04-4.463zm-7.449.079L9 10.063l3.04 4.226 3.04-4.226-2.803-4.384zm.566 9.31l3.277-4.384 2.803 4.384L16.12 19.5l-3.277-4.512z"/></g></svg>
